X:1
T:Carol, Brothers, Carol
T:Carol, Brothers, Carol
T:William Augustus Mühlenberg
T:William Augustus Mühlenberg, 1840
T:Public Domain Courtesy of the Cyber Hymnal™
T:Public Domain Courtesy of the Cyber Hymnal™
C:William Augustus Mühlenberg
Z:Public Domain
Z:Courtesy of the Cyber Hymnal™
%%score ( 1 2 ) ( 3 4 )
L:1/8
Q:1/4=90
M:2/4
K:Bb
V:1 treble 
V:2 treble 
V:3 bass 
V:4 bass 
V:1
"^Refrain" [Fd][Fd] [Fd][Fd] | [Bf][Fd] z2 | [Fc][Fc] [Fc][Fc] | [Fd]3 z | [FB][FB] [FB][Fc] | %5
w: ~ ~ ~ ~|~ ~|~ ~ ~ ~|~|~ ~ ~ ~|
w: Car- ol, bro- thers,|car- ol,|Car- ol joy- ful-|ly,|Car- ol the good|
w: ~ ~ ~ ~|~ ~|~ ~ ~ ~|~|~ ~ ~ ~|
w: ~ ~ ~ ~|~ ~|~ ~ ~ ~|~|~ ~ ~ ~|
 [Fd] !fermata![Ff]2 z | [Ec][Ec] [Fd]>[Ec] | [DB]3 B | cB AG | F2 FB | cB AG | F3 z | %12
w: ~ ~|~ ~ ~ ~|~ ~|~ ~ ~ ~|~ ~ ~|~ ~ ~ ~|~|
w: tid- ings,|Car- ol mer- ri-|ly. And|pray a glad- some|Christ- mas For|all good Chris- tian|men;|
w: ~ ~|~ ~ ~ ~|~ ~|~ ~ ~ ~|~ ~ ~|~ ~ ~ ~|~|
w: ~ ~|~ ~ ~ ~|~ ~|~ ~ ~ ~|~ ~ ~|~ ~ ~ ~|~|
 [Fd][Fd] [Fd][Fd] | !>![Ff] !fermata![Fd]2 z | [Gc][Gc] !>![Fd]>[Ec] | !fermata![DB]4 || %16
w: ~ ~ ~ ~|~ ~|~ ~ ~ ~|~|
w: Car- ol bro- thers,|car- ol,|Christ- mas day a-|gain.|
w: ~ ~ ~ ~|~ ~|~ ~ ~ ~|~|
w: ~ ~ ~ ~|~ ~|~ ~ ~ ~|~|
"^Duet" [Ac]>[Bd] [Ac]>[GB] | [^FA]2 [FA]2 | [GB]>[Gc] [^FA]>[GB] | !fermata!G4 | %20
w: 1.~Car- ol, but with|glad- ness,|Not in songs of|earth;|
w: 2.~At the mer- ry|ta- ble,|Think of those who’ve|none,|
w: 3.~List- ening an- gel|mu- sic,|Dis- cord sure must|cease—|
w: 4.~Let your hearts, res-|pond- ing,|To the ser- aph|band,|
 [GB]>[GB] [GB]>[GB] | [GB]2 [FB]2 | [=EB]>[EB] [FA]>[FA] | [=EG]4 | F[CF] [A,F][CG] | %25
w: On the Sav- ior’s|birth- day|Hal- lowed be our|mirth;|While a thou- sand|
w: Th’or- phan and the|wi- dow,|Hun- gry and a-|lone.|Boun- ti- ful your|
w: Who dare hate his|bro- ther|On this day of|peace?|While the heav’ns are|
w: With this morn- ing’s|sun- shine|Bright in ev- ery|land:|Word, and deed, and|
 [FA][FA] z2 | [FA][FA] [FA][GB] | [Ac]3 z | [Ac]>[Ac] [Ac]>[Ac] | [Bd]2 [GB]2 | %30
w: bless- ings|Fill our hearts with|glee,|Christ- mas day we’ll|keep, The|
w: of- ferings|To the al- tar|bring;|Let the poor and|nee- dy|
w: tell- ing|To man- kind good|will,|On- ly love and|kind- ness|
w: pray- er|Speak the grate- ful|sound,|Tell- ing “Mer- ry|Christ- mas”|
 [FA]>[FA] !fermata![=EG]>[FA] | (F[cef][Bdf][Acf]) |] %32
w: Feast of Char- i-|ty. * * *|
w: Christ- mas car- ols|sing. * * *|
w: Ev- ery bo- som|fill. * * *|
w: All the world a-|round. * * *|
V:2
 x4 | x4 | x4 | x4 | x4 | x4 | x4 | x3 B | cB AG | F2 FB | cB AG | F3 x | x4 | x4 | x4 | x4 || x4 | %17
 x4 | x4 | G4 | x4 | x4 | x4 | x4 | F x3 | x4 | x4 | x4 | x4 | x4 | x4 | F x3 |] %32
V:3
 [B,,B,][B,,B,] [B,,B,][B,,B,] | [B,,D][B,,B,] z2 | [F,A,][F,A,] [F,A,][F,A,] | [B,,B,]3 z | %4
 [D,B,][D,B,] [D,B,][F,A,] | B, !fermata![D,B,]2 z | [F,A,][F,A,] [F,A,]>[F,A,] | [B,,B,]3 B, | %8
 CB, A,G, | F,2 F,B, | CB, A,G, | F,3 z | B,B, [D,B,][F,B,] | !>![D,B,] !fermata![B,,B,]2 z | %14
 [E,B,][E,B,] !>![F,A,]>[F,A,] | !fermata![B,,B,]4 || [D,,D,]4 | [D,,D,]4 | [G,,G,]2 [D,,D,]2 | %19
 [G,,G,]4 | [G,,G,]4 | [G,,G,]4 | [C,,C,]4 | [C,,C,]4 | [F,,F,]4 | [F,,F,]4 | [F,,F,]4 | %27
 [F,,F,]3 z | [F,,F,]4 | [B,,B,]4 | [C,C]4 | ([F,,F,][A,,A,][B,,B,][F,,F,]) |] %32
V:4
 x4 | x4 | x4 | x4 | x4 | B, x3 | x4 | x3 B, | CB, A,G, | F,2 F,B, | CB, A,G, | F,3 x | B,B, x2 | %13
 x4 | x4 | x4 || x4 | x4 | x4 | x4 | x4 | x4 | x4 | x4 | x4 | x4 | x4 | x4 | x4 | x4 | x4 | x4 |] %32

